X: 157
T:Donegal Danny
M:4/4
R:reel
L:1/8
Z:added by Alf warnock alf0@rogers.com - www.alfwarnock.info/alfs
K:C
G2|"C"e2e4f2|e6d2|"F"c4 A4|"C"G4 G2G2|"F"A2c6|d2c4A2|"C"G8-|G6g2|
g6a2|"Em"g6f2|"Am"e6d2|c6c2|"Dm"d6e2|f2e2 d2c2|"G7"d8-|d6G2|
"C"e2e4f2|e6d2|"F"c4 A4|"C"G4 G2G2|"F"A2c4d2|c6A2|"C"G8-|G6e2|
g6a2|"Em"g6f2|"Am"e6d2|c6c2|"Dm"d6e2|f2e2 d2c2|"G7"d8-|d6G2|
P:Chorus
"C"c6c2|c4 d2e2|"F"f4 g2a2|"C"g6e2|g6g2|"Am"f2e2 d2c2|"Dm"d8-|d6G2|
"C"c6c2|c4 d2e2|"F"f4 g2a2|"C"g4 e2f2|g2g4g2|"G7"f2e4d2|"C"c6d2|"Am"e6f2|
"C"g2g4g2|"G7"f2e4d2|"C"c8-|c8|]

